Sources/FrostedUI/Resources/Icons.xcassets/checklist12.imageset/checklist-12.svg

<svg width="12" height="12" viewBox="0 0 12 12" fill="none" xmlns="http://www.w3.org/2000/svg" data-fui-icon="true">
  <path
    d="M7.25 0C8.07786 0.000173901 8.75 0.671261 8.75 1.5H9C9.93198 1.5 10.6875 2.25552 10.6875 3.1875V10.3125C10.6875 11.2445 9.93198 12 9 12H3C2.06802 12 1.3125 11.2445 1.3125 10.3125V3.1875C1.3125 2.25552 2.06802 1.5 3 1.5H3.25C3.25 0.671262 3.92214 0.000173773 4.75 0H7.25ZM3 3C2.89645 3 2.8125 3.08395 2.8125 3.1875V10.3125C2.8125 10.4161 2.89645 10.5 3 10.5H9C9.10355 10.5 9.1875 10.4161 9.1875 10.3125V3.1875C9.1875 3.08395 9.10355 3 9 3H8.66504C8.45912 3.5826 7.90311 4 7.25 4H4.75C4.09689 4 3.54088 3.5826 3.33496 3H3ZM6.81836 5.07715C7.05196 4.7351 7.5183 4.64726 7.86035 4.88086C8.2024 5.11446 8.29024 5.5808 8.05664 5.92285L6.30664 8.48535C6.17601 8.67662 5.96457 8.79736 5.7334 8.81152C5.50216 8.82557 5.27693 8.73164 5.12402 8.55762L3.99902 7.27637C3.72578 6.96518 3.75631 6.4911 4.06738 6.21777C4.37857 5.94453 4.85265 5.97506 5.12598 6.28613L5.61328 6.84082L6.81836 5.07715ZM4.75 1.5V2.5H7.25V1.5H4.75Z"
    fill="currentColor"
  />
</svg>

<svg xmlns="http://www.w3.org/2000/svg" width="12" height="12" fill="none" data-fui-icon="true" viewBox="0 0 12 12"><path fill="currentColor" d="M7.25 0a1.5 1.5 0 0 1 1.5 1.5H9c.932 0 1.688.756 1.688 1.688v7.124C10.688 11.246 9.932 12 9 12H3a1.687 1.687 0 0 1-1.687-1.687V3.186C1.313 2.257 2.068 1.5 3 1.5h.25A1.5 1.5 0 0 1 4.75 0zM3 3a.19.19 0 0 0-.187.188v7.124c0 .104.083.188.187.188h6a.187.187 0 0 0 .188-.187V3.186A.19.19 0 0 0 9 3h-.335c-.206.583-.762 1-1.415 1h-2.5c-.653 0-1.21-.417-1.415-1zm3.818 2.077a.75.75 0 1 1 1.239.846l-1.75 2.562a.75.75 0 0 1-1.183.073L3.999 7.276a.75.75 0 0 1 1.127-.99l.487.555zM4.75 1.5v1h2.5v-1z"/></svg>
